X: 11122
T: Duke Of Leinster, The
R: reel
M: 4/4
K: Gmajor
~G2 GB dB ~B2|dBeB dBAF|GB ~B2 GB ~B2|dBGB GEDE|
~G2 GB dB ~B2|dBeB dBAF|GABd ~g3 e|dBAF GE ~E2||
dzga bg ~g2|agbg abeg|dega bage|dBAF GE ~E2|
dega bg ~g2|agbg ageg|bg ~g2 efge|dBAB GEDE||

